X: 1
T: HENRIETTA -- HORNPIPE
B: Ryan's Mammoth Collection of Fiddle Tunes
R: hornpipe
M: 2/4
L: 1/16
Z: Contributed 20000425164847 by John Chambers jchambers:casc.com
K: F
v.c2.c2 Acfa | .g2.g2 g3e | fedc =Bcde | {g}fefg a4 |
v.c2.c2 Acfa | .g2.g2 g3e | fedc =Bcde | f2a2f2 :|
|: uc2 \
| .f(c=Bc) .A(cBc) | .d(_BAB) .G(BAB) | Acfe dfba | gfed .c2ude |
| .f(c=Bc) .A(cBc) | .d(_BAB) .G(BAB) | Acfa gbeg | f2f2f2 :|
